src/SVG/miles_aplicaciones_libres.svg

<?xml version="1.0" encoding="utf-8"?>
<!-- Generator: Adobe Illustrator 15.0.0, SVG Export Plug-In . SVG Version: 6.00 Build 0)  -->
<!DOCTYPE svg PUBLIC "-//W3C//DTD SVG 1.1//EN" "http://www.w3.org/Graphics/SVG/1.1/DTD/svg11.dtd">
<svg version="1.1" id="Layer_1" xmlns="http://www.w3.org/2000/svg" xmlns:xlink="http://www.w3.org/1999/xlink" x="0px" y="0px"
	 width="612px" height="792px" viewBox="0 0 612 792" enable-background="new 0 0 612 792" xml:space="preserve">
<g>
	<path fill="#6D8D24" d="M353.125,525.73L223.684,396.287l129.441-129.444l129.438,129.444L353.125,525.73z M263.452,396.287
		l89.673,89.676l89.676-89.676l-89.676-89.676L263.452,396.287z"/>
	<g>
		<polygon fill="#6D8D24" points="286.285,458.885 259.216,485.951 169.534,396.287 259.216,306.611 286.291,333.68 
			306.172,313.805 259.216,266.843 129.772,396.287 259.216,525.725 306.172,478.766 		"/>
	</g>
	<g>
		<path fill="#6D8D24" d="M370.29,445.135h-34.324v-31.683h-31.688v-34.321h31.688v-31.691h34.324v31.691h31.683v34.321H370.29
			V445.135z M346.528,434.571h13.205V402.89h31.683v-13.208h-31.683V358h-13.205v31.682h-31.682v13.208h31.682V434.571z"/>
	</g>
</g>
</svg>

<?xml version="1.0" encoding="UTF-8" standalone="no"?>
<!-- Generator: Adobe Illustrator 15.0.0, SVG Export Plug-In . SVG Version: 6.00 Build 0)  -->

<svg
   xmlns:dc="http://purl.org/dc/elements/1.1/"
   xmlns:cc="http://creativecommons.org/ns#"
   xmlns:rdf="http://www.w3.org/1999/02/22-rdf-syntax-ns#"
   xmlns:svg="http://www.w3.org/2000/svg"
   xmlns="http://www.w3.org/2000/svg"
   xmlns:sodipodi="http://sodipodi.sourceforge.net/DTD/sodipodi-0.dtd"
   xmlns:inkscape="http://www.inkscape.org/namespaces/inkscape"
   version="1.1"
   id="Layer_1"
   x="0px"
   y="0px"
   width="352.79099"
   height="258.88699"
   viewBox="0 0 352.79099 258.88699"
   enable-background="new 0 0 612 792"
   xml:space="preserve"
   inkscape:version="0.48.3.1 r9886"
   sodipodi:docname="miles_aplicaciones_libres.svg"><metadata
   id="metadata19"><rdf:RDF><cc:Work
       rdf:about=""><dc:format>image/svg+xml</dc:format><dc:type
         rdf:resource="http://purl.org/dc/dcmitype/StillImage" /></cc:Work></rdf:RDF></metadata><defs
   id="defs17" /><sodipodi:namedview
   pagecolor="#ffffff"
   bordercolor="#666666"
   borderopacity="1"
   objecttolerance="10"
   gridtolerance="10"
   guidetolerance="10"
   inkscape:pageopacity="0"
   inkscape:pageshadow="2"
   inkscape:window-width="640"
   inkscape:window-height="480"
   id="namedview15"
   showgrid="false"
   fit-margin-top="0"
   fit-margin-left="0"
   fit-margin-right="0"
   fit-margin-bottom="0"
   inkscape:zoom="0.2979798"
   inkscape:cx="176.228"
   inkscape:cy="129.73"
   inkscape:window-x="0"
   inkscape:window-y="27"
   inkscape:window-maximized="0"
   inkscape:current-layer="Layer_1" />
<g
   id="g3"
   transform="translate(-129.772,-266.843)">
	<path
   d="M 353.125,525.73 223.684,396.287 353.125,266.843 482.563,396.287 353.125,525.73 z m -89.673,-129.443 89.673,89.676 89.676,-89.676 -89.676,-89.676 -89.673,89.676 z"
   id="path5"
   inkscape:connector-curvature="0"
   style="fill:#6d8d24" />
	<g
   id="g7">
		<polygon
   points="259.216,306.611 286.291,333.68 306.172,313.805 259.216,266.843 129.772,396.287 259.216,525.725 306.172,478.766 286.285,458.885 259.216,485.951 169.534,396.287 "
   id="polygon9"
   style="fill:#6d8d24" />
	</g>
	<g
   id="g11">
		<path
   d="m 370.29,445.135 h -34.324 v -31.683 h -31.688 v -34.321 h 31.688 V 347.44 h 34.324 v 31.691 h 31.683 v 34.321 H 370.29 v 31.683 z m -23.762,-10.564 h 13.205 V 402.89 h 31.683 V 389.682 H 359.733 V 358 h -13.205 v 31.682 h -31.682 v 13.208 h 31.682 v 31.681 z"
   id="path13"
   inkscape:connector-curvature="0"
   style="fill:#6d8d24" />
	</g>
</g>
</svg>
